artwork/resources/intui/icons/shell/filetree/gradle-file.svg

<svg width="16" height="16" viewBox="0 0 16 16" fill="none" xmlns="http://www.w3.org/2000/svg">
<path d="M14.8944 3.54486C14.5319 2.78856 13.3381 1.8948 12.0006 3.06357M14.8944 3.54486C15.3569 4.42607 14.5631 6.06982 12.9631 6.06982C10.8767 6.06982 8.68787 2.61277 3.9237 4.96165C3.50279 5.16918 3.31562 5.6629 3.45956 6.10957L3.57564 6.46982M14.8944 3.54486C14.8944 3.54486 16.2295 6.36001 12.5643 9.10175C11.5314 9.87523 11.153 11.3935 11.1147 12.7459C11.1132 12.8004 11.0688 12.8441 11.0142 12.8441H9.87321C9.77409 12.8441 9.69136 12.771 9.66556 12.6753C9.4931 12.0357 8.90943 11.5836 8.22997 11.5836C7.55227 11.5836 6.96987 12.0398 6.79573 12.6779C6.76971 12.7732 6.68713 12.8459 6.58832 12.8459H5.51173C5.41292 12.8459 5.33034 12.7732 5.30432 12.6779C5.13019 12.0398 4.54778 11.5836 3.87008 11.5836C3.19218 11.5836 2.60962 12.0401 2.43568 12.6784C2.40969 12.7738 2.32709 12.8466 2.22825 12.8466H1.03554C0.984575 12.8466 0.941657 12.8077 0.936422 12.757C0.642735 9.91312 1.46647 7.80583 3.57564 6.46982M3.57564 6.46982L4.15687 8.38056C4.37284 9.01618 5.24066 9.12128 5.77023 8.82391C6.42801 8.46822 7.03442 8.04701 7.59165 7.54507" stroke="#6C707E" stroke-linecap="round"/>
<path fill-rule="evenodd" clip-rule="evenodd" d="M9.25933 7.32003C9.16406 7.25882 9.1068 7.14729 9.14402 7.04034C9.24352 6.75444 9.50016 6.54321 9.8117 6.50936C10.1856 6.46872 10.5372 6.69461 10.6556 7.05159C10.7543 7.34903 10.6688 7.67024 10.4501 7.87955C10.3683 7.95785 10.2431 7.95212 10.1478 7.89091L9.25933 7.32003Z" fill="#6C707E"/>
</svg>

<svg width="16" height="16" viewBox="0 0 16 16" fill="none" xmlns="http://www.w3.org/2000/svg"><path d="M14.894 3.545c-.362-.756-1.556-1.65-2.893-.481m2.893.48c.463.882-.33 2.526-1.93 2.526-2.087 0-4.276-3.457-9.04-1.108-.421.207-.608.7-.464 1.148l.116.36m11.318-2.925s1.336 2.815-2.33 5.557c-1.033.773-1.411 2.291-1.45 3.644a.1.1 0 0 1-.1.098h-1.14a.22.22 0 0 1-.208-.169 1.482 1.482 0 0 0-1.436-1.091c-.678 0-1.26.456-1.434 1.094a.22.22 0 0 1-.208.168H5.512a.22.22 0 0 1-.208-.168 1.487 1.487 0 0 0-2.868 0 .22.22 0 0 1-.208.169H1.036a.1.1 0 0 1-.1-.09c-.293-2.844.53-4.951 2.64-6.287m0 0l.58 1.91c.217.636 1.085.741 1.614.444a9.336 9.336 0 0 0 1.822-1.279" stroke="#6C707E" stroke-linecap="round"/><path fill-rule="evenodd" clip-rule="evenodd" d="M9.26 7.32c-.096-.061-.153-.173-.116-.28a.798.798 0 1 1 1.306.84c-.082.078-.207.072-.302.01l-.889-.57z" fill="#6C707E"/></svg>
